X:9
T:Tarantella
Z:Dave Holland <dave@biff.org.uk>
S:St Chartier festival 2002
M:6/8
L:1/8
Q:3/8=146
K:Am
a2a|e2e a2a|e3 ede|f2f fgf|e3 efe|d2d ded|c2c ABc|B3 dcB|1c2A:|2 A3||
A2B|c2c dcB|c2A ABc|B2B dcB|c2A A2B|c2c dcB|c2c ABc|B2B dcB|A3:|
<end>
<start>
